build/img/index/show-business-rates-btn.svg

<svg
    width="28"
    height="28"
    viewbox="0 0 28 28"
    fill="none"
    xmlns="http://www.w3.org/2000/svg">
    <path
        d="M23.3755 23.2418V19.8933C23.3755 18.9558 23.2416 18.0182 22.7058 17.0806C22.1701 16.143 21.5004 15.3394 20.5628 14.8036C19.6252 14.1339 17.6161 14 16.6786 14L14.5355 16.277L15.3392 18.0182V22.0364L13.9998 23.5097L12.6604 22.0364V18.0182L13.598 16.277L11.321 14C10.2495 14 8.24039 14.1339 7.30281 14.8036C6.36524 15.3394 5.82948 16.143 5.29372 17.0806C4.75796 18.0182 4.62402 18.8218 4.62402 19.8933V23.2418C4.62402 23.2418 8.10645 24.7151 13.9998 24.7151C19.8931 24.7151 23.3755 23.2418 23.3755 23.2418Z"
        fill="#132576"/>
    <path
        d="M13.9998 3.4187C11.455 3.4187 9.98165 5.82961 10.3835 8.5084C10.7853 11.1872 12.1247 13.0623 13.9998 13.0623C15.875 13.0623 17.2144 11.1872 17.6162 8.5084C18.018 5.69567 16.5447 3.4187 13.9998 3.4187Z"
        fill="#132576"/>
</svg>

<svg width="28" height="28" fill="none" xmlns="http://www.w3.org/2000/svg"><path d="M23.375 23.242v-3.349c0-.937-.133-1.875-.67-2.812-.535-.938-1.205-1.742-2.142-2.277-.938-.67-2.947-.804-3.884-.804l-2.143 2.277.803 1.741v4.018L14 23.51l-1.339-1.474v-4.018l.938-1.741L11.321 14c-1.072 0-3.08.134-4.018.804-.938.535-1.474 1.339-2.01 2.277-.535.937-.669 1.74-.669 2.812v3.349S8.106 24.715 14 24.715c5.893 0 9.375-1.473 9.375-1.473zM14 3.419c-2.545 0-4.018 2.41-3.617 5.09.402 2.678 1.742 4.553 3.617 4.553s3.214-1.875 3.616-4.554c.402-2.812-1.071-5.09-3.616-5.09z" fill="#132576"/></svg>
